X:45
T:Lucy Dear
B:Goulding and d'Almaine's Twenty-four Country Dances For the year 1826.
L:1/16
M:2/4
O:England
Z:Richard Robinson 
%%Dancenotes:Change sides, back again, lead down the middle and right & left
%%TUNEURL: http://www.leeds.ac.uk/music/Info/RRTuneBk/gettune/00000de1.html
%%ID:00000de1
K:D
F2GA B2cd | e2cA f4 | d2cd ecA2 | BAGF E3G |\
F2GA B2cd | e2cA f4 | d2cd B2ed | cBcA d4 ||
A2A2B2B2 | cBcA d2d2 | A2ag (gf).e.d | B2cc d2f2 |\
A2A2B2B2 | cBcA d2d2 | A2ag gfed | B2cc d4 |]
